img/logos-signature.svg

<svg width="299" height="37" viewBox="0 0 299 37" fill="none" xmlns="http://www.w3.org/2000/svg">
<path d="M109.841 26.2V23.528H112.193C112.417 23.528 112.63 23.5493 112.833 23.592C113.046 23.624 113.233 23.688 113.393 23.784C113.553 23.88 113.681 24.0133 113.777 24.184C113.873 24.3547 113.921 24.5733 113.921 24.84C113.921 25.32 113.777 25.6667 113.489 25.88C113.201 26.0933 112.833 26.2 112.385 26.2H109.841ZM107.329 21.576V33H112.865C113.377 33 113.873 32.936 114.353 32.808C114.844 32.68 115.276 32.4827 115.649 32.216C116.033 31.9493 116.337 31.608 116.561 31.192C116.785 30.7653 116.897 30.264 116.897 29.688C116.897 28.9733 116.721 28.3653 116.369 27.864C116.028 27.352 115.505 26.9947 114.801 26.792C115.313 26.5467 115.697 26.232 115.953 25.848C116.22 25.464 116.353 24.984 116.353 24.408C116.353 23.8747 116.262 23.4267 116.081 23.064C115.91 22.7013 115.665 22.4133 115.345 22.2C115.025 21.976 114.641 21.816 114.193 21.72C113.745 21.624 113.249 21.576 112.705 21.576H107.329ZM109.841 31.048V27.912H112.577C113.121 27.912 113.558 28.04 113.889 28.296C114.22 28.5413 114.385 28.9573 114.385 29.544C114.385 29.8427 114.332 30.088 114.225 30.28C114.129 30.472 113.996 30.6267 113.825 30.744C113.654 30.8507 113.457 30.9307 113.233 30.984C113.009 31.0267 112.774 31.048 112.529 31.048H109.841ZM118.258 27.272C118.29 26.7387 118.424 26.296 118.658 25.944C118.893 25.592 119.192 25.3093 119.554 25.096C119.917 24.8827 120.322 24.7333 120.77 24.648C121.229 24.552 121.688 24.504 122.146 24.504C122.562 24.504 122.984 24.536 123.41 24.6C123.837 24.6533 124.226 24.7653 124.578 24.936C124.93 25.1067 125.218 25.3467 125.442 25.656C125.666 25.9547 125.778 26.3547 125.778 26.856V31.16C125.778 31.5333 125.8 31.8907 125.842 32.232C125.885 32.5733 125.96 32.8293 126.066 33H123.762C123.72 32.872 123.682 32.744 123.65 32.616C123.629 32.4773 123.613 32.3387 123.602 32.2C123.24 32.5733 122.813 32.8347 122.322 32.984C121.832 33.1333 121.33 33.208 120.818 33.208C120.424 33.208 120.056 33.16 119.714 33.064C119.373 32.968 119.074 32.8187 118.818 32.616C118.562 32.4133 118.36 32.1573 118.21 31.848C118.072 31.5387 118.002 31.1707 118.002 30.744C118.002 30.2747 118.082 29.8907 118.242 29.592C118.413 29.2827 118.626 29.0373 118.882 28.856C119.149 28.6747 119.448 28.5413 119.778 28.456C120.12 28.36 120.461 28.2853 120.802 28.232C121.144 28.1787 121.48 28.136 121.81 28.104C122.141 28.072 122.434 28.024 122.69 27.96C122.946 27.896 123.149 27.8053 123.298 27.688C123.448 27.56 123.517 27.3787 123.506 27.144C123.506 26.8987 123.464 26.7067 123.378 26.568C123.304 26.4187 123.197 26.3067 123.058 26.232C122.93 26.1467 122.776 26.0933 122.594 26.072C122.424 26.04 122.237 26.024 122.034 26.024C121.586 26.024 121.234 26.12 120.978 26.312C120.722 26.504 120.573 26.824 120.53 27.272H118.258ZM123.506 28.952C123.41 29.0373 123.288 29.1067 123.138 29.16C123 29.2027 122.845 29.24 122.674 29.272C122.514 29.304 122.344 29.3307 122.162 29.352C121.981 29.3733 121.8 29.4 121.618 29.432C121.448 29.464 121.277 29.5067 121.106 29.56C120.946 29.6133 120.802 29.688 120.674 29.784C120.557 29.8693 120.461 29.9813 120.386 30.12C120.312 30.2587 120.274 30.4347 120.274 30.648C120.274 30.8507 120.312 31.0213 120.386 31.16C120.461 31.2987 120.562 31.4107 120.69 31.496C120.818 31.5707 120.968 31.624 121.138 31.656C121.309 31.688 121.485 31.704 121.666 31.704C122.114 31.704 122.461 31.6293 122.706 31.48C122.952 31.3307 123.133 31.1547 123.25 30.952C123.368 30.7387 123.437 30.5253 123.458 30.312C123.49 30.0987 123.506 29.928 123.506 29.8V28.952ZM133.174 27.64H135.398C135.366 27.1067 135.238 26.648 135.014 26.264C134.79 25.8693 134.497 25.544 134.134 25.288C133.782 25.0213 133.377 24.824 132.918 24.696C132.47 24.568 132.001 24.504 131.51 24.504C130.838 24.504 130.241 24.616 129.718 24.84C129.195 25.064 128.753 25.3787 128.39 25.784C128.027 26.1787 127.75 26.6533 127.558 27.208C127.377 27.752 127.286 28.344 127.286 28.984C127.286 29.6027 127.387 30.1733 127.59 30.696C127.793 31.208 128.075 31.6507 128.438 32.024C128.801 32.3973 129.238 32.6907 129.75 32.904C130.273 33.1067 130.843 33.208 131.462 33.208C132.561 33.208 133.462 32.92 134.166 32.344C134.87 31.768 135.297 30.9307 135.446 29.832H133.254C133.179 30.344 132.993 30.7547 132.694 31.064C132.406 31.3627 131.99 31.512 131.446 31.512C131.094 31.512 130.795 31.432 130.55 31.272C130.305 31.112 130.107 30.9093 129.958 30.664C129.819 30.408 129.718 30.1253 129.654 29.816C129.59 29.5067 129.558 29.2027 129.558 28.904C129.558 28.5947 129.59 28.2853 129.654 27.976C129.718 27.656 129.825 27.368 129.974 27.112C130.134 26.8453 130.337 26.632 130.582 26.472C130.827 26.3013 131.131 26.216 131.494 26.216C132.465 26.216 133.025 26.6907 133.174 27.64ZM136.937 21.576V33H139.209V30.152L140.089 29.304L142.361 33H145.113L141.641 27.768L144.761 24.728H142.073L139.209 27.704V21.576H136.937ZM147.677 30.312H145.517C145.538 30.8667 145.661 31.3307 145.885 31.704C146.12 32.0667 146.413 32.36 146.765 32.584C147.128 32.808 147.538 32.968 147.997 33.064C148.456 33.16 148.925 33.208 149.405 33.208C149.874 33.208 150.333 33.16 150.781 33.064C151.24 32.9787 151.645 32.824 151.997 32.6C152.349 32.376 152.632 32.0827 152.845 31.72C153.069 31.3467 153.181 30.888 153.181 30.344C153.181 29.96 153.106 29.64 152.957 29.384C152.808 29.1173 152.61 28.8987 152.365 28.728C152.12 28.5467 151.837 28.4027 151.517 28.296C151.208 28.1893 150.888 28.0987 150.557 28.024C150.237 27.9493 149.922 27.88 149.613 27.816C149.304 27.752 149.026 27.6827 148.781 27.608C148.546 27.5227 148.354 27.416 148.205 27.288C148.056 27.16 147.981 26.9947 147.981 26.792C147.981 26.6213 148.024 26.488 148.109 26.392C148.194 26.2853 148.296 26.2053 148.413 26.152C148.541 26.0987 148.68 26.0667 148.829 26.056C148.978 26.0347 149.117 26.024 149.245 26.024C149.65 26.024 150.002 26.104 150.301 26.264C150.6 26.4133 150.765 26.7067 150.797 27.144H152.957C152.914 26.632 152.781 26.2107 152.557 25.88C152.344 25.5387 152.072 25.2667 151.741 25.064C151.41 24.8613 151.032 24.7173 150.605 24.632C150.189 24.5467 149.757 24.504 149.309 24.504C148.861 24.504 148.424 24.5467 147.997 24.632C147.57 24.7067 147.186 24.8453 146.845 25.048C146.504 25.24 146.226 25.5067 146.013 25.848C145.81 26.1893 145.709 26.6267 145.709 27.16C145.709 27.5227 145.784 27.832 145.933 28.088C146.082 28.3333 146.28 28.5413 146.525 28.712C146.77 28.872 147.048 29.0053 147.357 29.112C147.677 29.208 148.002 29.2933 148.333 29.368C149.144 29.5387 149.773 29.7093 150.221 29.88C150.68 30.0507 150.909 30.3067 150.909 30.648C150.909 30.8507 150.861 31.0213 150.765 31.16C150.669 31.288 150.546 31.3947 150.397 31.48C150.258 31.5547 150.098 31.6133 149.917 31.656C149.746 31.688 149.581 31.704 149.421 31.704C149.197 31.704 148.978 31.6773 148.765 31.624C148.562 31.5707 148.381 31.4907 148.221 31.384C148.061 31.2667 147.928 31.1227 147.821 30.952C147.725 30.7707 147.677 30.5573 147.677 30.312ZM157.391 24.728V22.248H155.119V24.728H153.743V26.248H155.119V31.128C155.119 31.544 155.188 31.88 155.327 32.136C155.465 32.392 155.652 32.5893 155.887 32.728C156.132 32.8667 156.409 32.9573 156.719 33C157.039 33.0533 157.375 33.08 157.727 33.08C157.951 33.08 158.18 33.0747 158.415 33.064C158.649 33.0533 158.863 33.032 159.055 33V31.24C158.948 31.2613 158.836 31.2773 158.719 31.288C158.601 31.2987 158.479 31.304 158.351 31.304C157.967 31.304 157.711 31.24 157.583 31.112C157.455 30.984 157.391 30.728 157.391 30.344V26.248H159.055V24.728H157.391ZM160.04 27.272C160.072 26.7387 160.205 26.296 160.44 25.944C160.674 25.592 160.973 25.3093 161.336 25.096C161.698 24.8827 162.104 24.7333 162.552 24.648C163.01 24.552 163.469 24.504 163.928 24.504C164.344 24.504 164.765 24.536 165.192 24.6C165.618 24.6533 166.008 24.7653 166.36 24.936C166.712 25.1067 167 25.3467 167.224 25.656C167.448 25.9547 167.56 26.3547 167.56 26.856V31.16C167.56 31.5333 167.581 31.8907 167.624 32.232C167.666 32.5733 167.741 32.8293 167.848 33H165.544C165.501 32.872 165.464 32.744 165.432 32.616C165.41 32.4773 165.394 32.3387 165.384 32.2C165.021 32.5733 164.594 32.8347 164.104 32.984C163.613 33.1333 163.112 33.208 162.6 33.208C162.205 33.208 161.837 33.16 161.496 33.064C161.154 32.968 160.856 32.8187 160.6 32.616C160.344 32.4133 160.141 32.1573 159.992 31.848C159.853 31.5387 159.784 31.1707 159.784 30.744C159.784 30.2747 159.864 29.8907 160.024 29.592C160.194 29.2827 160.408 29.0373 160.664 28.856C160.93 28.6747 161.229 28.5413 161.56 28.456C161.901 28.36 162.242 28.2853 162.584 28.232C162.925 28.1787 163.261 28.136 163.592 28.104C163.922 28.072 164.216 28.024 164.472 27.96C164.728 27.896 164.93 27.8053 165.08 27.688C165.229 27.56 165.298 27.3787 165.288 27.144C165.288 26.8987 165.245 26.7067 165.16 26.568C165.085 26.4187 164.978 26.3067 164.84 26.232C164.712 26.1467 164.557 26.0933 164.376 26.072C164.205 26.04 164.018 26.024 163.816 26.024C163.368 26.024 163.016 26.12 162.76 26.312C162.504 26.504 162.354 26.824 162.312 27.272H160.04ZM165.288 28.952C165.192 29.0373 165.069 29.1067 164.92 29.16C164.781 29.2027 164.626 29.24 164.456 29.272C164.296 29.304 164.125 29.3307 163.944 29.352C163.762 29.3733 163.581 29.4 163.4 29.432C163.229 29.464 163.058 29.5067 162.888 29.56C162.728 29.6133 162.584 29.688 162.456 29.784C162.338 29.8693 162.242 29.9813 162.168 30.12C162.093 30.2587 162.056 30.4347 162.056 30.648C162.056 30.8507 162.093 31.0213 162.168 31.16C162.242 31.2987 162.344 31.4107 162.472 31.496C162.6 31.5707 162.749 31.624 162.92 31.656C163.09 31.688 163.266 31.704 163.448 31.704C163.896 31.704 164.242 31.6293 164.488 31.48C164.733 31.3307 164.914 31.1547 165.032 30.952C165.149 30.7387 165.218 30.5253 165.24 30.312C165.272 30.0987 165.288 29.928 165.288 29.8V28.952ZM173.179 31.048C172.827 31.048 172.534 30.9733 172.299 30.824C172.065 30.6747 171.873 30.4827 171.723 30.248C171.585 30.0133 171.483 29.752 171.419 29.464C171.366 29.1653 171.339 28.8667 171.339 28.568C171.339 28.2587 171.371 27.9653 171.435 27.688C171.51 27.4 171.622 27.1493 171.771 26.936C171.931 26.712 172.123 26.536 172.347 26.408C172.582 26.28 172.859 26.216 173.179 26.216C173.553 26.216 173.862 26.2853 174.107 26.424C174.353 26.5627 174.55 26.7493 174.699 26.984C174.849 27.2187 174.955 27.4907 175.019 27.8C175.083 28.0987 175.115 28.4187 175.115 28.76C175.115 29.0587 175.073 29.3467 174.987 29.624C174.913 29.8907 174.795 30.1307 174.635 30.344C174.475 30.5573 174.273 30.728 174.027 30.856C173.782 30.984 173.499 31.048 173.179 31.048ZM177.275 32.472V24.728H175.115V25.832H175.083C174.806 25.352 174.459 25.0107 174.043 24.808C173.638 24.6053 173.163 24.504 172.619 24.504C172.043 24.504 171.531 24.616 171.083 24.84C170.646 25.064 170.278 25.368 169.979 25.752C169.681 26.1253 169.451 26.5627 169.291 27.064C169.142 27.5547 169.067 28.0667 169.067 28.6C169.067 29.1653 169.131 29.704 169.259 30.216C169.398 30.7173 169.611 31.16 169.899 31.544C170.187 31.9173 170.555 32.216 171.003 32.44C171.451 32.6533 171.985 32.76 172.603 32.76C173.105 32.76 173.579 32.6587 174.027 32.456C174.486 32.2427 174.838 31.9173 175.083 31.48H175.115V32.568C175.126 33.1547 174.982 33.64 174.683 34.024C174.395 34.408 173.931 34.6 173.291 34.6C172.886 34.6 172.529 34.5147 172.219 34.344C171.91 34.184 171.702 33.8907 171.595 33.464H169.339C169.371 33.9333 169.499 34.3333 169.723 34.664C169.958 35.0053 170.246 35.2827 170.587 35.496C170.939 35.7093 171.323 35.864 171.739 35.96C172.166 36.0667 172.582 36.12 172.987 36.12C173.937 36.12 174.694 35.992 175.259 35.736C175.825 35.48 176.257 35.1653 176.555 34.792C176.854 34.4293 177.046 34.0347 177.131 33.608C177.227 33.1813 177.275 32.8027 177.275 32.472ZM184.672 27.976H180.976C180.987 27.816 181.019 27.6347 181.072 27.432C181.136 27.2293 181.238 27.0373 181.376 26.856C181.526 26.6747 181.718 26.5253 181.952 26.408C182.198 26.28 182.502 26.216 182.864 26.216C183.419 26.216 183.83 26.3653 184.096 26.664C184.374 26.9627 184.566 27.4 184.672 27.976ZM180.976 29.416H186.944C186.987 28.776 186.934 28.1627 186.784 27.576C186.635 26.9893 186.39 26.4667 186.048 26.008C185.718 25.5493 185.291 25.1867 184.768 24.92C184.246 24.6427 183.632 24.504 182.928 24.504C182.299 24.504 181.723 24.616 181.2 24.84C180.688 25.064 180.246 25.3733 179.872 25.768C179.499 26.152 179.211 26.6107 179.008 27.144C178.806 27.6773 178.704 28.2533 178.704 28.872C178.704 29.512 178.8 30.0987 178.992 30.632C179.195 31.1653 179.478 31.624 179.84 32.008C180.203 32.392 180.646 32.6907 181.168 32.904C181.691 33.1067 182.278 33.208 182.928 33.208C183.867 33.208 184.667 32.9947 185.328 32.568C185.99 32.1413 186.48 31.432 186.8 30.44H184.8C184.726 30.696 184.523 30.9413 184.192 31.176C183.862 31.4 183.467 31.512 183.008 31.512C182.368 31.512 181.878 31.3467 181.536 31.016C181.195 30.6853 181.008 30.152 180.976 29.416Z" fill="white"/>
<path d="M188.18 31.656C188.18 32.456 188.836 33.112 189.636 33.112C190.452 33.112 191.108 32.456 191.108 31.656C191.108 30.856 190.452 30.2 189.636 30.2C188.836 30.2 188.18 30.856 188.18 31.656Z" fill="#9BF0E1"/>
<path d="M0 1L299 0.999974" stroke="#9BF0E1"/>
</svg>

<svg xmlns="http://www.w3.org/2000/svg" width="299" height="37" fill="none" viewBox="0 0 299 37"><path fill="#fff" d="M109.841 26.2v-2.672h2.352a3.1 3.1 0 01.64.064c.213.032.4.096.56.192.16.096.288.23.384.4.096.17.144.39.144.656 0 .48-.144.827-.432 1.04-.288.213-.656.32-1.104.32h-2.544zm-2.512-4.624V33h5.536a5.75 5.75 0 001.488-.192 3.893 3.893 0 001.296-.592c.384-.267.688-.608.912-1.024.224-.427.336-.928.336-1.504 0-.715-.176-1.323-.528-1.824-.341-.512-.864-.87-1.568-1.072.512-.245.896-.56 1.152-.944.267-.384.4-.864.4-1.44 0-.533-.091-.981-.272-1.344a2.081 2.081 0 00-.736-.864 3.128 3.128 0 00-1.152-.48 7.115 7.115 0 00-1.488-.144h-5.376zm2.512 9.472v-3.136h2.736c.544 0 .981.128 1.312.384.331.245.496.661.496 1.248 0 .299-.053.544-.16.736a1.205 1.205 0 01-.4.464 1.97 1.97 0 01-.592.24 3.757 3.757 0 01-.704.064h-2.688zm8.417-3.776c.032-.533.166-.976.4-1.328a2.73 2.73 0 01.896-.848 3.771 3.771 0 011.216-.448 6.707 6.707 0 011.376-.144c.416 0 .838.032 1.264.096a3.71 3.71 0 011.168.336c.352.17.64.41.864.72.224.299.336.699.336 1.2v4.304c0 .373.022.73.064 1.072.043.341.118.597.224.768h-2.304a5.557 5.557 0 01-.112-.384 5.886 5.886 0 01-.048-.416 2.955 2.955 0 01-1.28.784c-.49.15-.992.224-1.504.224a4.07 4.07 0 01-1.104-.144 2.53 2.53 0 01-.896-.448 2.17 2.17 0 01-.608-.768c-.138-.31-.208-.677-.208-1.104 0-.47.08-.853.24-1.152.171-.31.384-.555.64-.736.267-.181.566-.315.896-.4a8.98 8.98 0 011.024-.224c.342-.053.678-.096 1.008-.128.331-.032.624-.08.88-.144.256-.064.459-.155.608-.272.15-.128.219-.31.208-.544 0-.245-.042-.437-.128-.576a.747.747 0 00-.32-.336 1.04 1.04 0 00-.464-.16 3.036 3.036 0 00-.56-.048c-.448 0-.8.096-1.056.288-.256.192-.405.512-.448.96h-2.272zm5.248 1.68a1.101 1.101 0 01-.368.208 6.406 6.406 0 01-.976.192 9.654 9.654 0 00-.544.08 4.55 4.55 0 00-.512.128 1.51 1.51 0 00-.432.224.992.992 0 00-.288.336 1.115 1.115 0 00-.112.528c0 .203.038.373.112.512.075.139.176.25.304.336.128.075.278.128.448.16.171.032.347.048.528.048.448 0 .795-.075 1.04-.224.246-.15.427-.325.544-.528.118-.213.187-.427.208-.64.032-.213.048-.384.048-.512v-.848zm9.668-1.312h2.224c-.032-.533-.16-.992-.384-1.376a2.972 2.972 0 00-.88-.976 3.585 3.585 0 00-1.216-.592 5.099 5.099 0 00-1.408-.192c-.672 0-1.269.112-1.792.336a3.724 3.724 0 00-1.328.944 4.02 4.02 0 00-.832 1.424 5.594 5.594 0 00-.272 1.776c0 .619.101 1.19.304 1.712.203.512.485.955.848 1.328.363.373.8.667 1.312.88a4.695 4.695 0 001.712.304c1.099 0 2-.288 2.704-.864.704-.576 1.131-1.413 1.28-2.512h-2.192c-.075.512-.261.923-.56 1.232-.288.299-.704.448-1.248.448-.352 0-.651-.08-.896-.24a1.895 1.895 0 01-.592-.608 3.069 3.069 0 01-.304-.848 4.493 4.493 0 010-1.84c.064-.32.171-.608.32-.864.16-.267.363-.48.608-.64.245-.17.549-.256.912-.256.971 0 1.531.475 1.68 1.424zm3.763-6.064V33h2.272v-2.848l.88-.848L142.361 33h2.752l-3.472-5.232 3.12-3.04h-2.688l-2.864 2.976v-6.128h-2.272zm10.74 8.736h-2.16c.021.555.144 1.019.368 1.392.235.363.528.656.88.88.363.224.773.384 1.232.48a6.857 6.857 0 002.784 0 3.39 3.39 0 001.216-.464 2.57 2.57 0 00.848-.88c.224-.373.336-.832.336-1.376 0-.384-.075-.704-.224-.96a1.945 1.945 0 00-.592-.656 3.02 3.02 0 00-.848-.432 9.028 9.028 0 00-.96-.272c-.32-.075-.635-.144-.944-.208a9.444 9.444 0 01-.832-.208 1.838 1.838 0 01-.576-.32.624.624 0 01-.224-.496c0-.17.043-.304.128-.4a.821.821 0 01.304-.24 1.34 1.34 0 01.416-.096c.149-.021.288-.032.416-.032.405 0 .757.08 1.056.24.299.15.464.443.496.88h2.16c-.043-.512-.176-.933-.4-1.264a2.48 2.48 0 00-.816-.816 3.447 3.447 0 00-1.136-.432 6.679 6.679 0 00-2.608 0 3.369 3.369 0 00-1.152.416 2.298 2.298 0 00-.832.8c-.203.341-.304.779-.304 1.312 0 .363.075.672.224.928.149.245.347.453.592.624.245.16.523.293.832.4.32.096.645.181.976.256.811.17 1.44.341 1.888.512.459.17.688.427.688.768a.878.878 0 01-.144.512 1.195 1.195 0 01-.368.32 1.963 1.963 0 01-.48.176 2.693 2.693 0 01-1.152-.032 1.791 1.791 0 01-.544-.24 1.551 1.551 0 01-.4-.432 1.35 1.35 0 01-.144-.64zm9.714-5.584v-2.48h-2.272v2.48h-1.376v1.52h1.376v4.88c0 .416.069.752.208 1.008.138.256.325.453.56.592.245.139.522.23.832.272.32.053.656.08 1.008.08.224 0 .453-.005.688-.016.234-.01.448-.032.64-.064v-1.76a3.226 3.226 0 01-.336.048c-.118.01-.24.016-.368.016-.384 0-.64-.064-.768-.192s-.192-.384-.192-.768v-4.096h1.664v-1.52h-1.664zm2.649 2.544c.032-.533.165-.976.4-1.328a2.71 2.71 0 01.896-.848 3.762 3.762 0 011.216-.448 6.693 6.693 0 011.376-.144c.416 0 .837.032 1.264.096.426.053.816.165 1.168.336.352.17.64.41.864.72.224.299.336.699.336 1.2v4.304c0 .373.021.73.064 1.072.042.341.117.597.224.768h-2.304a5.052 5.052 0 01-.112-.384 4.906 4.906 0 01-.048-.416c-.363.373-.79.635-1.28.784a5.14 5.14 0 01-1.504.224 4.06 4.06 0 01-1.104-.144 2.522 2.522 0 01-.896-.448 2.16 2.16 0 01-.608-.768c-.139-.31-.208-.677-.208-1.104 0-.47.08-.853.24-1.152.17-.31.384-.555.64-.736.266-.181.565-.315.896-.4.341-.096.682-.17 1.024-.224.341-.053.677-.096 1.008-.128.33-.032.624-.08.88-.144a1.62 1.62 0 00.608-.272c.149-.128.218-.31.208-.544 0-.245-.043-.437-.128-.576a.757.757 0 00-.32-.336 1.045 1.045 0 00-.464-.16 3.052 3.052 0 00-.56-.048c-.448 0-.8.096-1.056.288-.256.192-.406.512-.448.96h-2.272zm5.248 1.68a1.111 1.111 0 01-.368.208 6.478 6.478 0 01-.976.192 9.393 9.393 0 00-.544.08 4.445 4.445 0 00-.512.128 1.51 1.51 0 00-.432.224.97.97 0 00-.288.336 1.103 1.103 0 00-.112.528c0 .203.037.373.112.512a.92.92 0 00.304.336c.128.075.277.128.448.16.17.032.346.048.528.048.448 0 .794-.075 1.04-.224a1.53 1.53 0 00.544-.528c.117-.213.186-.427.208-.64.032-.213.048-.384.048-.512v-.848zm7.891 2.096c-.352 0-.645-.075-.88-.224a1.869 1.869 0 01-.576-.576 2.686 2.686 0 01-.304-.784 5.12 5.12 0 01-.08-.896c0-.31.032-.603.096-.88a2.32 2.32 0 01.336-.752c.16-.224.352-.4.576-.528.235-.128.512-.192.832-.192.374 0 .683.07.928.208.246.139.443.325.592.56.15.235.256.507.32.816.064.299.096.619.096.96a2.9 2.9 0 01-.128.864 2.145 2.145 0 01-.352.72c-.16.213-.362.384-.608.512a1.806 1.806 0 01-.848.192zm4.096 1.424v-7.744h-2.16v1.104h-.032c-.277-.48-.624-.821-1.04-1.024-.405-.203-.88-.304-1.424-.304-.576 0-1.088.112-1.536.336a3.275 3.275 0 00-1.104.912c-.298.373-.528.81-.688 1.312a5.258 5.258 0 00-.224 1.536c0 .565.064 1.104.192 1.616.139.501.352.944.64 1.328.288.373.656.672 1.104.896.448.213.982.32 1.6.32.502 0 .976-.101 1.424-.304a2.283 2.283 0 001.056-.976h.032v1.088c.011.587-.133 1.072-.432 1.456-.288.384-.752.576-1.392.576-.405 0-.762-.085-1.072-.256-.309-.16-.517-.453-.624-.88h-2.256c.032.47.16.87.384 1.2.235.341.523.619.864.832.352.213.736.368 1.152.464.427.107.843.16 1.248.16.95 0 1.707-.128 2.272-.384.566-.256.998-.57 1.296-.944.299-.363.491-.757.576-1.184.096-.427.144-.805.144-1.136zm7.397-4.496h-3.696a2.99 2.99 0 01.096-.544c.064-.203.166-.395.304-.576.15-.181.342-.33.576-.448.246-.128.55-.192.912-.192.555 0 .966.15 1.232.448.278.299.47.736.576 1.312zm-3.696 1.44h5.968a5.81 5.81 0 00-.16-1.84 4.407 4.407 0 00-.736-1.568 3.518 3.518 0 00-1.28-1.088c-.522-.277-1.136-.416-1.84-.416-.629 0-1.205.112-1.728.336a4.037 4.037 0 00-1.328.928 3.98 3.98 0 00-.864 1.376 4.839 4.839 0 00-.304 1.728c0 .64.096 1.227.288 1.76.203.533.486.992.848 1.376a3.75 3.75 0 001.328.896c.523.203 1.11.304 1.76.304.939 0 1.739-.213 2.4-.64.662-.427 1.152-1.136 1.472-2.128h-2c-.074.256-.277.501-.608.736-.33.224-.725.336-1.184.336-.64 0-1.13-.165-1.472-.496-.341-.33-.528-.864-.56-1.6z"/><path fill="#9BF0E1" d="M188.18 31.656a1.465 1.465 0 002.928 0 1.465 1.465 0 00-2.928 0z"/><path stroke="#9BF0E1" d="M0 1h299"/></svg>
